X: 671
T: Ettiğin Cevri Bile...
C: Cinuçen Tanrıkorur
O: Turkey
F: http://compmusic.upf.edu/node/140
N: huzzam--sarki--aksak--ettigin_cevri--cinucen_tanrikorur
N: makam= huzzam
N: form= sarki
N: usul= aksak = 9/8
M: 9/8
L: 1/16
K: C _1/4B _3/4e ^3/4f 
Q: 1/4=90
%%MIDI tuningsystem comma53
B4 c3d d4 {a}g4 fe | d2 {e}dc(3edc cBc4d2 {e}d2e2  | \
w:  *  Et ti ğin  *  cev  |  *  *  *  *  ri  *  *  bi *  le  ken  | 
fg{a}f/e/d/c/ d2e2 f2g2 fag_b ac' | 
w:  *  *  *  *  *  *  *  di me  nî *  met   | 
ag2f(3gfe {f}e3/2d/d4g2 (3fed(3cB^A  | \
w:  *  *  *  bi *  *  *  li *  rim   SAZ  | 
B4 c3d d4 {a}g4 fe | 
w:  *  Et ti ğin  *  cev  | 
d2 {e}dc(3edc cBc4d2 {e}d2e2  | fg{a}f/e/d/c/ d2e2 f2g2 fag_b ac' | 
w:  *  *  *  *  ri  *  *  bi *  le  ken  |  *  *  *  *  *  *  *  di me  nî *  met   | 
ag2f(3gfe {f}e3/2d/d4{a}g2 (3fed(3cde  | \
w:  *  *  *  bi *  *  *  li *  rim   *  SAZ  | 
f4 z2ff f4 {g}g4 (3fef | 
w:  *  Kü se mem  *  bah  | 
g3ff3/2e/ edd4e{f}e/d/ e2(3dcd  | \
w:  *  *  tı *  ma  *  ben  sev  | 
a2gf f3/2e/ed e4 e3/2d/ce df | 
w:  *  *  *  me *  ği  *  kıs met   | 
e{a}g2f(3gfe ede4{d'}c'2 (3_bag(3fed  | \
w:  *  *  *  *  bi *  *  li *  rim   *  SAZ  | 
e4 z2ee e3d d3/2e/fg {a}(3fed | 
w:  *  Kü se mem  *  bah  | 
{e}d3c(3edc cBB4{a}g4fe  | d3e (3edccB c4 Bdce df | 
w:  *  *  *  tı *  *  ma  *  ben  *  sev  |  *  *  me *  *  ği  *  kıs met   | 
{g}ed2c(3edc cBB4d'2 (3=f'=e'd'(3c'b^a  | \
w:  *  *  *  *  bi *  *  li *  rim   SAZ  | 
b4 z2bb b4 {_7/8e'}d'2c'2 b2 | 
w:  *  E re mem  *  vas  | 
a2 {b}ag=f2 {a}g2(3f_1/4ef {g}fed4(3^3/4f=ef  | \
w:  *  *  *  *  lı *  na  lâ *  *  *  *  *  kin   | 
g4 =e2f2 g4 fag_b ac' | 
w:  *  e re bil sem   | 
ag2f(3gfe {f}e3/2d/d4{a}g2 (3fed(3cde  | \
w:  *  *  *  de  *  *  *  yi *  ne   *  SAZ  | 
f4 z2ff f4 {g}g4 (3fef | 
w:  *  Kü se mem  *  bah  | 
g3ff3/2e/ edd4e{f}e/d/ e2(3dcd  | \
w:  *  *  tı *  ma  *  ben  sev  | 
a2gf f3/2e/ed e4 e3/2d/ce df | 
w:  *  *  *  me *  ği  *  kıs met   | 
e{a}g2f(3gfe ede4{d'}c'2 (3_bag(3fed  | \
w:  *  *  *  *  bi *  *  li *  rim   *  SAZ  | 
e4 z2ee e3d d3/2e/fg {a}(3fed | 
w:  *  Kü se mem  *  bah  | 
{e}d3c(3edc cBB4{a}g4fe  | d3e (3edccB c4 Bdce df | 
w:  *  *  *  tı *  *  ma  *  ben  *  sev  |  *  *  me *  *  ği  *  kıs met   | 
{g}ed2c(3edc cBB4|
w:  *  *  *  *  bi *  *  li *  rim    | 


